dist/images/icons/food.svg

<svg width="24" height="24" viewBox="0 0 24 24" fill="none" xmlns="http://www.w3.org/2000/svg">
<g clip-path="url(#clip0_69_5695)">
<path d="M17.2499 6H17.2541H17.2499ZM22.4788 4.5H18.2104L18.6285 2.82844L20.4248 2.21672C20.8068 2.08688 21.0342 1.68094 20.924 1.29282C20.896 1.19518 20.8484 1.10426 20.7842 1.02556C20.72 0.946861 20.6404 0.882029 20.5504 0.834996C20.4603 0.787963 20.3617 0.759709 20.2604 0.751948C20.1591 0.744187 20.0573 0.757081 19.9612 0.789847L17.7581 1.53985C17.6394 1.5803 17.5328 1.64985 17.448 1.74214C17.3631 1.83443 17.3028 1.9465 17.2724 2.06813L16.6645 4.5H10.521C10.1174 4.5 9.77103 4.81032 9.75087 5.21391C9.74598 5.31532 9.76174 5.41666 9.79717 5.5118C9.83261 5.60694 9.887 5.69389 9.95704 5.76739C10.0271 5.84089 10.1113 5.8994 10.2046 5.93939C10.2979 5.97937 10.3984 5.99999 10.4999 6H10.6288L10.6757 6.40594C10.6868 6.50074 10.7323 6.58817 10.8036 6.65161C10.8749 6.71505 10.967 6.75007 11.0624 6.75C12.8906 6.75 14.5152 7.26094 15.7556 8.2275C16.4454 8.75906 17.0047 9.44128 17.3906 10.222C17.6066 10.6612 17.766 11.126 17.8649 11.6053C17.8846 11.6987 17.94 11.7808 18.0191 11.8341C18.6568 12.2667 19.1272 12.9046 19.3522 13.6416C19.5771 14.3786 19.5431 15.1705 19.2557 15.8855C19.2223 15.9682 19.2198 16.0602 19.2487 16.1447C19.4147 16.6206 19.4997 17.121 19.4999 17.625C19.4999 18.6722 19.1437 19.6702 18.4968 20.4352C18.1301 20.8718 17.6687 21.2191 17.1477 21.4509C17.0576 21.4907 16.9867 21.5642 16.9504 21.6558C16.7557 22.1629 16.4808 22.6355 16.1362 23.0555C16.1218 23.0725 16.1126 23.0933 16.1097 23.1154C16.1067 23.1374 16.1101 23.1599 16.1195 23.1801C16.1288 23.2003 16.1437 23.2175 16.1625 23.2295C16.1812 23.2416 16.203 23.248 16.2252 23.2481H18.532C19.0967 23.2458 19.6402 23.0322 20.0553 22.6492C20.4704 22.2663 20.7271 21.7418 20.7749 21.1791L22.3781 6H22.4999C22.6015 6.00012 22.7021 5.97959 22.7955 5.93966C22.889 5.89974 22.9733 5.84124 23.0434 5.76773C23.1136 5.69422 23.168 5.60722 23.2035 5.51202C23.239 5.41682 23.2548 5.31539 23.2499 5.21391C23.2302 4.81032 22.8824 4.5 22.4788 4.5Z" fill="#112211"/>
<path d="M5.09484 15C5.24277 14.9993 5.38936 15.0279 5.52614 15.0843C5.66292 15.1406 5.78718 15.2235 5.89172 15.3281L6.61875 16.0552C6.63616 16.0726 6.65684 16.0864 6.67961 16.0959C6.70237 16.1053 6.72677 16.1101 6.75141 16.1101C6.77605 16.1101 6.80045 16.1053 6.82321 16.0959C6.84597 16.0864 6.86665 16.0726 6.88406 16.0552L7.60969 15.3281C7.71423 15.2235 7.83849 15.1406 7.97527 15.0843C8.11205 15.0279 8.25864 14.9993 8.40656 15H17.6213C17.6705 15.0005 17.7194 14.9913 17.765 14.9729C17.8107 14.9545 17.8523 14.9273 17.8875 14.8928C17.9227 14.8583 17.9507 14.8173 17.97 14.772C17.9893 14.7267 17.9995 14.678 18 14.6287V14.625C17.9995 14.1929 17.85 13.7742 17.5768 13.4395C17.3035 13.1048 16.9232 12.8745 16.5 12.7875C16.4616 11.3958 15.8906 10.2309 14.8355 9.4125C13.8595 8.65125 12.5555 8.25 11.0625 8.25H7.6875C4.48969 8.25 2.32359 10.0673 2.25 12.7875C1.82677 12.8745 1.44649 13.1048 1.17325 13.4395C0.90001 13.7742 0.750528 14.1929 0.75 14.625C0.75 14.7245 0.789509 14.8198 0.859835 14.8902C0.930161 14.9605 1.02554 15 1.125 15H5.09484ZM8.71594 16.5C8.66668 16.5 8.61789 16.5096 8.57237 16.5284C8.52685 16.5473 8.48548 16.5749 8.45063 16.6097L7.41281 17.648C7.23701 17.8237 6.99859 17.9225 6.75 17.9225C6.50141 17.9225 6.263 17.8237 6.08719 17.648L5.04938 16.6097C5.01452 16.5749 4.97315 16.5473 4.92763 16.5284C4.88211 16.5096 4.83332 16.5 4.78406 16.5H1.53094C1.35476 16.4992 1.18398 16.5608 1.04879 16.6737C0.913601 16.7867 0.82271 16.9438 0.792188 17.1173C0.764027 17.2851 0.749916 17.4549 0.75 17.625C0.75 19.0589 1.74047 20.227 2.96531 20.25C3.07922 20.9587 3.35484 21.5991 3.76969 22.1002C4.38328 22.8413 5.27531 23.25 6.28125 23.25H12.4688C13.4747 23.25 14.3667 22.8413 14.9803 22.0992C15.3952 21.5981 15.6708 20.9578 15.7847 20.2491C17.0095 20.227 18 19.0589 18 17.6241C18.0001 17.454 17.986 17.2842 17.9578 17.1164C17.9271 16.9431 17.8361 16.7861 17.7009 16.6734C17.5658 16.5606 17.3951 16.4992 17.2191 16.5H8.71594Z" fill="#112211"/>
</g>
<defs>
<clipPath id="clip0_69_5695">
<rect width="24" height="24" fill="white"/>
</clipPath>
</defs>
</svg>

<svg width="24" height="24" fill="none" xmlns="http://www.w3.org/2000/svg"><g clip-path="url(#clip0_69_5695)" fill="#121"><path d="M17.25 6h.004-.004zm5.229-1.5H18.21l.418-1.672 1.797-.611a.766.766 0 00.499-.924.75.75 0 00-.963-.503l-2.203.75a.75.75 0 00-.486.528L16.665 4.5H10.52c-.404 0-.75.31-.77.714A.75.75 0 0010.5 6h.129l.047.406a.39.39 0 00.386.344c1.829 0 3.453.51 4.694 1.477a5.715 5.715 0 012.109 3.378c.02.094.075.176.154.23a3.375 3.375 0 011.237 4.05.371.371 0 00-.007.26 4.5 4.5 0 01.25 1.48 4.346 4.346 0 01-1.002 2.81 3.755 3.755 0 01-1.35 1.016.375.375 0 00-.197.205c-.194.507-.47.98-.814 1.4a.116.116 0 00-.017.124.116.116 0 00.106.068h2.307a2.26 2.26 0 002.243-2.069L22.378 6h.122a.75.75 0 00.75-.786.765.765 0 00-.771-.714z"/><path d="M5.095 15a1.117 1.117 0 01.797.328l.727.727a.189.189 0 00.204.04.189.189 0 00.061-.04l.726-.727A1.12 1.12 0 018.407 15h9.214a.374.374 0 00.379-.371v-.004a1.878 1.878 0 00-1.5-1.838c-.038-1.391-.61-2.556-1.665-3.375-.976-.76-2.28-1.162-3.773-1.162H7.688c-3.198 0-5.364 1.817-5.438 4.537a1.878 1.878 0 00-1.5 1.838.375.375 0 00.375.375h3.97zm3.62 1.5a.376.376 0 00-.264.11l-1.038 1.038a.938.938 0 01-1.326 0L5.05 16.61a.377.377 0 00-.265-.11H1.531a.747.747 0 00-.739.617 3.058 3.058 0 00-.042.508c0 1.434.99 2.602 2.215 2.625.114.709.39 1.35.805 1.85.613.741 1.505 1.15 2.511 1.15h6.188c1.006 0 1.898-.409 2.511-1.15.415-.502.69-1.142.805-1.85C17.009 20.226 18 19.058 18 17.623c0-.17-.014-.34-.042-.508a.746.746 0 00-.739-.616H8.716z"/></g><defs><clipPath id="clip0_69_5695"><path fill="#fff" d="M0 0h24v24H0z"/></clipPath></defs></svg>
